X: 30092
T: GOV. EUSTIS' MARCH
C:
%R: march
B: Elias Howe "The Musician's Companion" Part 3 1844 p.9
S: http://imslp.org/wiki/The_Musician's_Companion_(Howe,_Elias)
S: https://archive.org/stream/firstthirdpartof03howe/#page/66/mode/1up
Z: 2016 John Chambers <jc:trillian.mit.edu>
M: C
L: 1/16
K: Bb
% - - - - - - - - - - - - - - - - - - - - - - - - -
V: 1 staves=2
F4 |\
B4B3F d4d3B | f3ba3b f6f2 |\
g3ed3e f3BA3B | c4c3c c4F4 |\
B4B3F d4d3B | f3ba3b f6f2 |
g3ed3e c4A2f2 | B4B3B B4 :| \
|: d3e |\
f4d3f B4G3B | E4E3E E4e3f |\
g4=e3g c4A3c | F4F3F F4FGAF |
B4B3F d4d3B | f3ba3b f6f2 |\
g3ed3e c4A3f | B4B3B B4d3e |\
fgfe dedc BcB_A GAGF | E4E3E E4=e3f |
gagf =efed cdcB ABAG | F4F3F F4 FGAF |\
B4B3F d4d3c | Bcde fgab f6f2 |\
g3ed3e c4a4 | b4b3b b4 :|
% - - - - - - - - - - - - - - - - - - - - - - - - -
V: 2
F4 |\
D4D3F B4B4 | d4e4 d6d2 |\
e4c4 d4F3B | A4A3A A4F4 |\
D4D3F B4B4 | d4e4 d6d2 |
e3cB3c A4F2E2 | D4D3D D4 :| \
|: B3c |\
d4B4 F4D4 | E4E3E E4c3d |\
e4c4 A4F4 | F4F3F F4z4 |\
D4D3F B4B4 | d4e4 d6d2 |\
e4c4 A4F3E | D4D3D D4B3c |\
d4B4 F4d4 | e2B2G2B2 E4c3d |\
=e4c4 G4e4 | f2c2A2c2 F4z4 |\
D4D3F B4F3E | D3FB3c d6d2 |\
e3cB3c A4c4 | d4d3d d4 :|
% - - - - - - - - - - - - - - - - - - - - - - - - -


